X:1
T:Roscommons Hornpipe
M:C|
L:1/8
Z:AK/FC
Z: Andrew Kuntz <AIKUNTZ@AOL.COM> irtrad-l 2001-10-30
K:Bm
BA | F2B2B3d | cdBd cdBd | F2A2 A3c | BcAc BcAc | F2B2 BABc | d2d2 e2de |
f2a2 fedc |dBcA  B2 :: F2 b2b2 ag | fefg a2 z2 |A2a2 agfe | defg agfe |
F2b2b2 ag | fefg a3z | A2 ag fedc | dBcA B2 :|
